icon/cg/pacman.svg

<svg viewBox="0 0 24 24" fill="none" xmlns="http://www.w3.org/2000/svg" height="1em" width="1em">
  <path d="M14.0636 8C14.6159 8 15.0636 7.55228 15.0636 7C15.0636 6.44772 14.6159 6 14.0636 6C13.5113 6 13.0636 6.44772 13.0636 7C13.0636 7.55228 13.5113 8 14.0636 8Z" fill="currentColor"/>
  <path fill-rule="evenodd" clip-rule="evenodd" d="M13 3C15.1523 3 17.1281 3.7555 18.6768 5.01576L20.124 6.46299L18.8288 7.75818L18.828 7.75738L14.5854 12L18.2236 15.6383L18.2224 15.6396L20.1273 17.5445L18.7144 18.9575L18.7122 18.9553C17.1583 20.2329 15.1687 21 13 21C8.02944 21 4 16.9706 4 12C4 7.02944 8.02944 3 13 3ZM11.7569 12L17.2893 17.5323C16.1044 18.4523 14.6162 19 13 19C9.13401 19 6 15.866 6 12C6 8.13401 9.13401 5 13 5C14.6162 5 16.1045 5.54772 17.2893 6.46768L11.7569 12Z" fill="currentColor"/>
</svg>

<svg width="24" height="24" fill="none" xmlns="http://www.w3.org/2000/svg"><path d="M14.064 8a1 1 0 1 0 0-2 1 1 0 0 0 0 2Z" fill="currentColor"/><path fill-rule="evenodd" clip-rule="evenodd" d="M13 3c2.152 0 4.128.756 5.677 2.016l1.447 1.447-1.295 1.295h-.001L14.585 12l3.639 3.638-.002.002 1.905 1.904-1.413 1.413-.002-.002A9 9 0 1 1 13 3Zm-1.243 9 5.532 5.532a7 7 0 1 1 0-11.065L11.757 12Z" fill="currentColor"/></svg>
